inst/assets/svg/wi-lightning.svg

<?xml version="1.0" encoding="UTF-8"?>
<svg xmlns="http://www.w3.org/2000/svg" xmlns:xlink="http://www.w3.org/1999/xlink" width="30pt" height="30pt" viewBox="0 0 30 30" version="1.1">
<g id="surface291">
<path style=" stroke:none;fill-rule:nonzero;fill:rgb(0%,0%,0%);fill-opacity:1;" d="M 7.960938 24.511719 L 8.351563 24.511719 L 15.230469 14.328125 C 15.320313 14.148438 15.269531 14.058594 15.078125 14.058594 L 12.238281 14.058594 L 15.230469 8.609375 C 15.320313 8.429688 15.25 8.339844 15.03125 8.339844 L 11.21875 8.339844 C 11.109375 8.339844 11.019531 8.398438 10.929688 8.519531 L 8.148438 15.921875 C 8.128906 16.101563 8.191406 16.191406 8.339844 16.191406 L 11.089844 16.191406 Z M 16.460938 18.179688 L 16.730469 18.179688 L 21.949219 10.511719 C 22 10.429688 22.011719 10.359375 21.988281 10.308594 C 21.96875 10.261719 21.910156 10.238281 21.820313 10.238281 L 19.71875 10.238281 L 21.898438 6.210938 C 22.019531 6.011719 21.960938 5.910156 21.71875 5.910156 L 18.980469 5.910156 C 18.851563 5.910156 18.75 5.96875 18.679688 6.101563 L 16.601563 11.578125 C 16.570313 11.671875 16.570313 11.738281 16.609375 11.789063 C 16.648438 11.839844 16.710938 11.859375 16.800781 11.859375 L 18.839844 11.859375 Z M 16.460938 18.179688 "/>
</g>
</svg>

<?xml version="1.0" encoding="utf-8"?>
<!-- Generator: Adobe Illustrator 22.0.1, SVG Export Plug-In . SVG Version: 6.00 Build 0)  -->
<svg version="1.1" id="Layer_1" xmlns="http://www.w3.org/2000/svg" xmlns:xlink="http://www.w3.org/1999/xlink" x="0px" y="0px"
	 viewBox="0 0 30 30" style="enable-background:new 0 0 30 30;" xml:space="preserve">
<path d="M7.96,24.51h0.39l6.88-10.18c0.09-0.18,0.04-0.27-0.15-0.27h-2.84l2.99-5.45c0.09-0.18,0.02-0.27-0.2-0.27h-3.81
	c-0.11,0-0.2,0.06-0.29,0.18l-2.78,7.4c-0.02,0.18,0.04,0.27,0.19,0.27h2.75L7.96,24.51z M16.46,18.18h0.27l5.22-7.67
	c0.05-0.08,0.06-0.15,0.04-0.2s-0.08-0.07-0.17-0.07h-2.1l2.18-4.03c0.12-0.2,0.06-0.3-0.18-0.3h-2.74c-0.13,0-0.23,0.06-0.3,0.19
	l-2.08,5.48c-0.03,0.09-0.03,0.16,0.01,0.21c0.04,0.05,0.1,0.07,0.19,0.07h2.04L16.46,18.18z"/>
</svg>
